X:1
T:Where Have All the Flowers Gone?
C:Pete Seger
M:4/4
L:1/8
K:C
 G3 A G3 F| E2 D2 C4| c4 d4|B-A G6| G3 A G3 F| E2 D2 C4| F4 E3 C| D4 z4|
 G3 A G3 F| E2 D2 C3 G| c3 e d2 c2| BA G4 A2| F4 ED CE| G6 A2| F4 ED CB,|
 C8|]
W:
W:Where have all the flowers gone?
W:Long time passing.
W:Where have all the flowers gone?
W:Long time ago.
W:Where have all the flowers gone?
W:The girls have picked them ev'ry one.
W:Oh, When will you ever learn?
W:Oh, When will you ever learn?
W:
W:Young girls ...
W:They've taken husbands ev'ry one.
W:
W:Young men ...
W:They're all in uniform.
W:
W:Soldiers ...
W:They've gone to graveyards ev'ry one.
W:
W:Graveyards ...
W:They're covered with flowers ev'ry one.
W:
W:Flowers ...
W:Young girls have picked them ev'ry one.

